!!!COM: Anton (Friedrich Wilhelm von) Webern
!!!OTL: [T402_Web-w4p14-15h9m1-7]
**kern	**dynam	**kern	**dynam	**kern	**dynam	**kern	**dynam	**kern	**dynam	**kern	**dynam	**kern	**dynam	**kern	**dynam	**kern	**dynam	**kern	**dynam	**kern	**dynam	**kern	**dynam
*grp:A	*grp:A	*grp:A	*grp:A	*grp:A	*grp:A	*grp:A	*grp:A	*grp:A	*grp:A	*grp:A	*grp:A	*grp:A	*grp:A	*grp:A	*grp:A	*grp:A	*grp:A	*grp:A	*grp:A	*grp:A	*grp:A	*grp:B	*grp:B
*part11	*part11	*part10	*part10	*part9	*part9	*part8	*	*part8	*part8	*part7	*part7	*part6	*part6	*part5	*part5	*part4	*part4	*part3	*part3	*part2	*part2	*part1	*part1
*staff12	*	*staff11	*	*staff10	*	*staff9	*	*staff8	*	*staff7	*	*staff6	*	*staff5	*	*staff4	*	*staff3	*	*staff2	*	*staff1	*
*I"Violoncello	*	*I"Viola	*	*I"Violin II	*	*I"Harp	*	*	*	*I"Timpani	*	*I"Trumpet in Bb 1. 2.	*	*I"Horn in F 3. 4.	*	*I"Horn in F 1. 2.	*	*I"Bassoon 1.	*	*I"Clarinet in Bb 1. 2.	*	*I"Flute 1	*
*I'Vc.	*	*I'Vla.	*	*I'Vln. II	*	*I'Hp.	*	*	*	*I'Timp.	*	*I'Tpt.	*	*I'Hn.	*	*I'Hn.	*	*I'Bsn.	*	*I'Cl.	*	*I'Fl.	*
!!pagebreak:original
*clefF4	*	*clefC3	*	*clefG2	*	*clefF4	*	*clefG2	*	*clefF4	*	*clefG2	*	*clefG2	*	*clefG2	*	*clefF4	*	*clefG2	*	*clefG2	*
*	*	*	*	*	*	*	*	*	*	*	*	*ITrd1c2	*	*ITrd4c7	*	*ITrd4c7	*	*	*	*ITrd1c2	*	*	*
*k[b-]	*	*k[b-]	*	*k[b-]	*	*k[b-]	*	*k[b-]	*	*k[]	*	*k[b-]	*	*k[b-]	*	*k[b-]	*	*k[b-]	*	*k[b-]	*	*k[b-]	*
*F:	*	*F:	*	*F:	*	*F:	*	*F:	*	*C:	*	*F:	*	*F:	*	*F:	*	*F:	*	*F:	*	*F:	*
*M2/4	*	*M2/4	*	*M2/4	*	*M2/4	*	*M2/4	*	*M2/4	*	*M2/4	*	*M2/4	*	*M2/4	*	*M2/4	*	*M2/4	*	*M2/4	*
!!LO:REH:t=9
=90	=90	=90	=90	=90	=90	=90	=90	=90	=90	=90	=90	=90	=90	=90	=90	=90	=90	=90	=90	=90	=90	=90	=90
*^	*	*	*	*^	*	*	*	*	*	*	*	*^	*	*	*	*	*	*	*	*^	*	*	*
!	!	!	!	!	!LO:TX:t=P:problem: Dashed line should smoothly connect from instruction to termination.	!	!	!	!	!	!	!	!	!LO:TX:b:t=1.	!	!	!	!	!	!	!	!	!	!	!	!LO:TX:t=Sehr Gehalten, Tempo I ( [quarter]=42)	!
!	!	!LO:DY:ed=brack	!	!	!LO:TX:a:t=am Steg - - - - - - - -  	!	!	!	!	!	!LO:DY:ed=brack	!	!	!LO:TX:a:t=aüßerst zartaber deuthich	! 	!	!	!	!LO:TX:a:t=aüßerst zartaber deuthich	!	!	!LO:DY:ed=brack	!	!	!	!LO:TX:a:i:t=sart harvurtr.	!
4c#X	2r	ppp	2r	.	4r	4ryy	.	4c#X	.	2r	p	2r	.	6r	2rc	.	2r	.	2r	.	2c#X	p	(2a	(2f	ppp	8r	.
.	.	.	.	.	.	.	.	.	.	.	.	.	.	.	.	.	.	.	.	.	.	.	.	.	.	8dd~L	pp
.	.	.	.	.	.	.	.	.	.	.	.	.	.	(6eXZ	.	pp <	.	.	.	.	.	.	.	.	.	.	.
*	*	*	*	*	*tremolo	*	*	*	*	*	*	*	*	*	*	*	*	*	*	*	*	*	*	*	*	*	*
4r	.	.	.	.	32aLLL	32fLLL	ppp	4r	.	.	.	.	.	.	.	.	.	.	.	.	.	.	.	.	.	(8dd	.
.	.	.	.	.	32a	32f	.	.	.	.	.	.	.	.	.	.	.	.	.	.	.	.	.	.	.	.	.
.	.	.	.	.	32a	32f	.	.	.	.	.	.	.	.	.	.	.	.	.	.	.	.	.	.	.	.	.
.	.	.	.	.	.	.	.	.	.	.	.	.	.	6f	.	[	.	.	.	.	.	.	.	.	.	.	.
.	.	.	.	.	32a	32f	.	.	.	.	.	.	.	.	.	.	.	.	.	.	.	.	.	.	.	.	.
.	.	.	.	.	32a	32f	.	.	.	.	.	.	.	.	.	.	.	.	.	.	.	.	.	.	.	8cc#XJ)	.
.	.	.	.	.	32a	32f	.	.	.	.	.	.	.	.	.	.	.	.	.	.	.	.	.	.	.	.	.
.	.	.	.	.	32a	32f	.	.	.	.	.	.	.	.	.	.	.	.	.	.	.	.	.	.	.	.	.
.	.	.	.	.	32aJJJ	32fJJJ	.	.	.	.	.	.	.	.	.	.	.	.	.	.	.	.	.	.	.	.	.
=91	=91	=91	=91	=91	=91	=91	=91	=91	=91	=91	=91	=91	=91	=91	=91	=91	=91	=91	=91	=91	=91	=91	=91	=91	=91	=91	=91
*	*	*	*	*	*	*	*	*	*	*	*	*	*	*	*	*	*	*	*^	*	*	*	*	*	*	*	*
!	! 	!	!	!	!	!	!	!	!	!	!	!	!	!	!	!	!	!	!	! 	!	!	!	!	!	!	!	!
6An	2r	.	2r	.	32b-LLL	32g-XLLL	.	6A	.	2r	.	2r	.	4ff-X	2re	>	2r	.	6r	2rc	.	6An	.	2b-	2g-X	.	(8cc#XL	<
.	.	.	.	.	32b-	32g-X	.	.	.	.	.	.	.	.	.	.	.	.	.	.	.	.	.	.	.	.	.	.
.	.	.	.	.	32b-	32g-X	.	.	.	.	.	.	.	.	.	.	.	.	.	.	.	.	.	.	.	.	.	.
.	.	.	.	.	32b-	32g-X	.	.	.	.	.	.	.	.	.	.	.	.	.	.	.	.	.	.	.	.	.	.
.	.	.	.	.	32b-	32g-X	.	.	.	.	.	.	.	.	.	.	.	.	.	.	.	.	.	.	.	.	8cccn	.
.	.	.	.	.	32b-	32g-X	.	.	.	.	.	.	.	.	.	.	.	.	.	.	.	.	.	.	.	.	.	.
6G-X	.	.	.	.	.	.	.	6G-X	.	.	.	.	.	.	.	.	.	.	(6dn	.	pp <	6G-X	.	.	.	.	.	.
.	.	.	.	.	32b-	32g-X	.	.	.	.	.	.	.	.	.	.	.	.	.	.	.	.	.	.	.	.	.	.
.	.	.	.	.	32b-	32g-X	.	.	.	.	.	.	.	.	.	.	.	.	.	.	.	.	.	.	.	.	.	.
.	.	.	.	.	32b-	32g-X	.	.	.	.	.	.	.	4ee-)	.	]	.	.	.	.	.	.	.	.	.	.	8bbn	[ >
.	.	.	.	.	32b-	32g-X	.	.	.	.	.	.	.	.	.	.	.	.	.	.	.	.	.	.	.	.	.	.
.	.	.	.	.	32b-	32g-X	.	.	.	.	.	.	.	.	.	.	.	.	.	.	.	.	.	.	.	.	.	.
6F	.	.	.	.	.	.	.	6F	.	.	>	.	.	.	.	.	.	.	6e-X	.	.	6F	>	.	.	.	.	.
.	.	.	.	.	32b-	32g-X	.	.	.	.	.	.	.	.	.	.	.	.	.	.	.	.	.	.	.	.	.	.
.	.	.	.	.	32b-	32g-X	.	.	.	.	.	.	.	.	.	.	.	.	.	.	.	.	.	.	.	.	8bb-XJ)	]
.	.	.	.	.	32b-	32g-X	.	.	.	.	.	.	.	.	.	.	.	.	.	.	.	.	.	.	.	.	.	.
.	.	.	.	.	32b-	32g-X	.	.	.	.	.	.	.	.	.	.	.	.	.	.	.	.	.	.	.	.	.	.
.	.	.	.	.	32b-JJJ	32g-XJJJ	.	.	.	.	.	.	.	.	.	.	.	.	.	.	.	.	.	.	.	.	.	.
=92	=92	=92	=92	=92	=92	=92	=92	=92	=92	=92	=92	=92	=92	=92	=92	=92	=92	=92	=92	=92	=92	=92	=92	=92	=92	=92	=92	=92
*	*	*	*^	*	*	*	*	*	*	*	*	*	*	*	*	*	*	*	*	*	*	*	*	*	*	*	*	*
*	*	*	*tremolo	*tremolo	*	*	*	*	*	*	*	*	*	*	*	*	*	*	*	*	*	*	*	*	*	*	*	*	*
!	!	!	!LO:TX:t=P:problem: Dashed line should smoothly connect from instruction to termination.	!	!	!	!	!	!	!	!	!	!	!	!	!	!	!	!	!	!	!	!	!	!	!	!	!	!
!	!	!	!LO:TX:a:t=am Steg - - - - - - - - -	!	!	!LO:TX:a:t= - - - ┐	!	!	!	!	!	!	!	!	!	!	!	!LO:TX:a:t=mit Dämpfer	!	!	!	!	!	!	!	!	!	!	!
4En	2r	>	32cLLL	32A-XLLL	ppp	32ccLLL	32a-XLLL	.	4En	.	2r	.	2r	.	6r	2re	.	(2A-X 2c	ppp	4ddn	2re	.	4En	.	4cc)	4a-X)	.	8r	.
.	.	.	32c	32A-X	.	32cc	32a-X	.	.	.	.	.	.	.	.	.	.	.	.	.	.	.	.	.	.	.	.	.	.
.	.	.	32c	32A-X	.	32cc	32a-X	.	.	.	.	.	.	.	.	.	.	.	.	.	.	.	.	.	.	.	.	.	.
.	.	.	32c	32A-X	.	32cc	32a-X	.	.	.	.	.	.	.	.	.	.	.	.	.	.	.	.	.	.	.	.	.	.
.	.	.	32c	32A-X	.	32cc	32a-X	.	.	.	.	.	.	.	.	.	.	.	.	.	.	.	.	.	.	.	.	8aa~L	pp
.	.	.	32c	32A-X	.	32cc	32a-X	.	.	.	.	.	.	.	.	.	.	.	.	.	.	.	.	.	.	.	.	.	.
.	.	.	.	.	.	.	.	.	.	.	.	.	.	.	(6gn	.	pp <	.	.	.	.	.	.	.	.	.	.	.	.
.	.	.	32c	32A-X	.	32cc	32a-X	.	.	.	.	.	.	.	.	.	.	.	.	.	.	.	.	.	.	.	.	.	.
.	.	.	32c	32A-X	.	32ccJJJ	32a-XJJJ	.	.	.	.	.	.	.	.	.	.	.	.	.	.	[	.	.	.	.	.	.	.
4BB-X	.	]	32c	32A-X	.	4r	4ryy	.	4BB-	.	.	]	.	.	.	.	.	.	.	4ccn)	.	] > ]	[4BB-)	]	4r	4ryy	.	(8aa	.
.	.	.	32c	32A-X	.	.	.	.	.	.	.	.	.	.	.	.	.	.	.	.	.	.	.	.	.	.	.	.	.
.	.	.	32c	32A-X	.	.	.	.	.	.	.	.	.	.	.	.	.	.	.	.	.	.	.	.	.	.	.	.	.
.	.	.	.	.	.	.	.	.	.	.	.	.	.	.	6a-X	.	.	.	.	.	.	.	.	.	.	.	.	.	.
.	.	.	32c	32A-X	.	.	.	.	.	.	.	.	.	.	.	.	.	.	.	.	.	.	.	.	.	.	.	.	.
.	.	.	32c	32A-X	.	.	.	.	.	.	.	.	.	.	.	.	.	.	.	.	.	.	.	.	.	.	.	8aa-XJ)	.
.	.	.	32c	32A-X	.	.	.	.	.	.	.	.	.	.	.	.	.	.	.	.	.	.	.	.	.	.	.	.	.
.	.	.	32c	32A-X	.	.	.	.	.	.	.	.	.	.	.	.	.	.	.	.	.	.	.	.	.	.	.	.	.
.	.	.	32cJJJ	32A-XJJJ	.	.	.	.	.	.	.	.	.	.	.	.	[	.	.	.	.	.	.	.	.	.	.	.	.
*	*	*	*	*	*	*v	*v	*	*	*	*	*	*	*	*	*	*	*	*	*	*	*	*	*	*v	*v	*	*	*
=93	=93	=93	=93	=93	=93	=93	=93	=93	=93	=93	=93	=93	=93	=93	=93	=93	=93	=93	=93	=93	=93	=93	=93	=93	=93	=93	=93
*	*	*	*	*tremolo	*	*	*	*	*	*	*	*	*	*	*	*	*	*	*	*	*	*	*	*	*	*	*
!	!	!	!LO:TX:a:t= ┐	!	!	!	!	!	!	!	!	!	!	!	!	!	!	!	!	!	!	!	!	!	!	!	!
6r	2r	.	32d-XLLL	32B-XLLL	> ]	2r	.	6r	.	2r	.	2r	.	4aa-X	2re	.	2B- 2d-X)	> ]	6r	2re	.	6BB-]	.	2r	.	(8aa-XL	<
.	.	.	32d-X	32B-X	.	.	.	.	.	.	.	.	.	.	.	.	.	.	.	.	.	.	.	.	.	.	.
.	.	.	32d-X	32B-X	.	.	.	.	.	.	.	.	.	.	.	.	.	.	.	.	.	.	.	.	.	.	.
.	.	.	32d-X	32B-X	.	.	.	.	.	.	.	.	.	.	.	.	.	.	.	.	.	.	.	.	.	.	.
.	.	.	32d-X	32B-X	.	.	.	.	.	.	.	.	.	.	.	.	.	.	.	.	.	.	.	.	.	8ggg	.
.	.	.	32d-X	32B-X	.	.	.	.	.	.	.	.	.	.	.	.	.	.	.	.	.	.	.	.	.	.	.
6C	.	ppp <	.	.	.	.	.	6C	.	.	< ppp	.	.	.	.	.	.	.	(6en	.	<	(6C	ppp <	.	.	.	.
.	.	.	32d-X	32B-X	.	.	.	.	.	.	.	.	.	.	.	.	.	.	.	.	.	.	.	.	.	.	.
.	.	.	32d-X	32B-X	.	.	.	.	.	.	.	.	.	.	.	.	.	.	.	.	.	.	.	.	.	.	.
.	.	.	32d-X	32B-X	.	.	.	.	.	.	.	.	.	4ggn)	.	] > ]	.	.	.	.	.	.	.	.	.	8ggg-X	[ >
.	.	.	32d-X	32B-X	.	.	.	.	.	.	.	.	.	.	.	.	.	.	.	.	.	.	.	.	.	.	.
.	.	.	32d-X	32B-X	.	.	.	.	.	.	.	.	.	.	.	.	.	.	.	.	.	.	.	.	.	.	.
6D-X	.	.	.	.	.	.	.	6D-X	.	.	.	.	.	.	.	.	.	.	6f	.	.	6D-X	.	.	.	.	.
.	.	.	32d-X	32B-X	.	.	.	.	.	.	.	.	.	.	.	.	.	.	.	.	.	.	.	.	.	.	.
.	.	.	32d-X	32B-X	.	.	.	.	.	.	.	.	.	.	.	.	.	.	.	.	.	.	.	.	.	8fffJ)	]
.	.	.	32d-X	32B-X	.	.	.	.	.	.	.	.	.	.	.	.	.	.	.	.	.	.	.	.	.	.	.
.	.	.	32d-X	32B-X	.	.	.	.	.	.	.	.	.	.	.	.	.	.	.	.	.	.	.	.	.	.	.
.	.	.	32d-XJJJ	32B-XJJJ	.	.	.	.	.	.	.	.	.	.	.	.	.	.	.	.	.	.	.	.	.	.	.
*	*	*	*Xtremolo	*Xtremolo	*	*	*	*	*	*	*	*	*	*	*	*	*	*	*	*	*	*	*	*	*	*	*
*	*	*	*v	*v	*	*	*	*	*	*	*	*	*	*	*	*	*	*	*	*	*	*	*	*	*	*	*
=94	=94	=94	=94	=94	=94	=94	=94	=94	=94	=94	=94	=94	=94	=94	=94	=94	=94	=94	=94	=94	=94	=94	=94	=94	=94	=94
*	*	*	*	*	*^	*	*	*	*	*	*	*	*	*	*	*	*	*	*	*	*	*	*^	*	*	*
!	!	!	!	!	!LO:TX:a:t=am Steg - - - - - - -	!	!	!	!	!	!	!	!	!	!	!	!	!	!	!	!	!	!	!	!	!	!LO:TX:vg=7:a:B:i:t=poco rit. - - - - - -	!
!	!	!	!	!	!LO:TX:t=P:problem: Dashed line should smoothly connect from instruction to termination.	!	!	!	!	!	!	!	!	!	!	!	!	!	!	!	!	!	!	!	!	!	!LO:TX:t=P:problem: Dashed line should smoothly connected from rit. to new tempo.	!
4c	2r	.	2r	.	32a-XLLL	32eLLL	ppp	4cn	.	2r	.	2r	.	6r	2rB	.	2r	.	4ee-X	2re	[	4c	.	(2a-X	(2eXZ	ppp >	8r	.
.	.	.	.	.	32a-X	32e	.	.	.	.	.	.	.	.	.	.	.	.	.	.	.	.	.	.	.	.	.	.
.	.	.	.	.	32a-X	32e	.	.	.	.	.	.	.	.	.	.	.	.	.	.	.	.	.	.	.	.	.	.
.	.	.	.	.	32a-X	32e	.	.	.	.	.	.	.	.	.	.	.	.	.	.	.	.	.	.	.	.	.	.
.	.	.	.	.	32a-X	32e	.	.	.	.	.	.	.	.	.	.	.	.	.	.	.	.	.	.	.	.	8fff~L	ppp
.	.	.	.	.	32a-X	32e	.	.	.	.	.	.	.	.	.	.	.	.	.	.	.	.	.	.	.	.	.	.
.	.	.	.	.	.	.	.	.	.	.	.	.	.	(6c#X	.	ppp <	.	.	.	.	.	.	.	.	.	.	.	.
.	.	.	.	.	32a-X	32e	.	.	.	.	.	.	.	.	.	.	.	.	.	.	.	.	.	.	.	.	.	.
.	.	.	.	.	32a-X	32e	.	.	.	.	.	.	.	.	.	.	.	.	.	.	.	.	.	.	.	.	.	.
4B-	.	[	.	.	32a-X	32e	.	4B-X	.	.	[	.	.	.	.	.	.	.	4dd-X)	.	> ]	4B-X	[	.	.	.	(8fff	>
.	.	.	.	.	32a-X	32e	.	.	.	.	.	.	.	.	.	.	.	.	.	.	.	.	.	.	.	.	.	.
.	.	.	.	.	32a-X	32e	.	.	.	.	.	.	.	.	.	.	.	.	.	.	.	.	.	.	.	.	.	.
.	.	.	.	.	.	.	.	.	.	.	.	.	.	6dn	.	.	.	.	.	.	.	.	.	.	.	.	.	.
.	.	.	.	.	32a-X	32e	.	.	.	.	.	.	.	.	.	.	.	.	.	.	.	.	.	.	.	.	.	.
.	.	.	.	.	32a-X	32e	.	.	.	.	.	.	.	.	.	.	.	.	.	.	.	.	.	.	.	.	8eeeJ)	]
.	.	.	.	.	32a-X	32e	.	.	.	.	.	.	.	.	.	.	.	.	.	.	.	.	.	.	.	.	.	.
.	.	.	.	.	32a-X	32e	.	.	.	.	.	.	.	.	.	.	.	.	.	.	.	.	.	.	.	.	.	.
.	.	.	.	.	32a-XJJJ	32eJJJ	.	.	.	.	.	.	.	.	.	.	.	.	.	.	.	.	.	.	.	.	.	.
=95	=95	=95	=95	=95	=95	=95	=95	=95	=95	=95	=95	=95	=95	=95	=95	=95	=95	=95	=95	=95	=95	=95	=95	=95	=95	=95	=95	=95
*	*	*	*	*	*	*tremolo	*	*	*	*	*	*	*	*	*	*	*	*	*	*	*	*	*	*	*	*	*	*
!	!	!	!	!	!	!LO:TX:a:t=┐	!	!	!	!	!	!	!	!	!	!	!	!	!	!	!	!	!	!	!	!	!LO:TX:vg=7:a:B:i:t=- - - - - - - - - - -	!
6A	2r	>	2r	.	32gLLL	32gLLL	> ]	6A	.	2r	>	2r	.	4dd	2re	[	2r	.	6r	2rB	.	6An	>	4g)	4g)	.	8r	.
.	.	.	.	.	32g	32g	.	.	.	.	.	.	.	.	.	.	.	.	.	.	.	.	.	.	.	.	.	.
.	.	.	.	.	32g	32g	.	.	.	.	.	.	.	.	.	.	.	.	.	.	.	.	.	.	.	.	.	.
.	.	.	.	.	32g	32g	.	.	.	.	.	.	.	.	.	.	.	.	.	.	.	.	.	.	.	.	.	.
.	.	.	.	.	32g	32g	.	.	.	.	.	.	.	.	.	.	.	.	.	.	.	.	.	.	.	.	8bb-X~L	>
.	.	.	.	.	32g	32g	.	.	.	.	.	.	.	.	.	.	.	.	.	.	.	.	.	.	.	.	.	.
6F	.	.	.	.	.	.	.	6F	.	.	.	.	.	.	.	.	.	.	(6G#X	.	ppp <	6F	.	.	.	.	.	.
.	.	.	.	.	32g	32g	.	.	.	.	.	.	.	.	.	.	.	.	.	.	.	.	.	.	.	.	.	.
.	.	.	.	.	32g	32g	.	.	.	.	.	.	.	.	.	.	.	.	.	.	.	.	.	.	.	.	.	.
.	.	.	.	.	32g	32g	.	.	.	.	.	.	.	4dd-X)	.	> ]	.	.	.	.	.	.	.	4r	4ryy	]	(8bb-	.
.	.	.	.	.	32g	32g	.	.	.	.	.	.	.	.	.	.	.	.	.	.	.	.	.	.	.	.	.	.
.	.	.	.	.	32g	32g	.	.	.	.	.	.	.	.	.	.	.	.	.	.	.	.	.	.	.	.	.	.
6D#X	.	.	.	.	.	.	.	6D#X	.	.	.	.	.	.	.	.	.	.	6An	.	.	6D#X	.	.	.	.	.	.
.	.	.	.	.	32g	32g	.	.	.	.	.	.	.	.	.	.	.	.	.	.	.	.	.	.	.	.	.	.
.	.	.	.	.	32g	32g	.	.	.	.	.	.	.	.	.	.	.	.	.	.	.	.	.	.	.	.	8aaJ)	]
.	.	.	.	.	32g	32g	.	.	.	.	.	.	.	.	.	.	.	.	.	.	.	.	.	.	.	.	.	.
.	.	.	.	.	32g	32g	.	.	.	.	.	.	.	.	.	.	.	.	.	.	.	.	.	.	.	.	.	.
.	.	.	.	.	32gJJJ	32gJJJ	.	.	.	.	]	.	.	.	.	.	.	.	.	.	[	.	.	.	.	.	.	.
*	*	*	*	*	*Xtremolo	*Xtremolo	*	*	*	*	*	*	*	*	*	*	*	*	*	*	*	*	*	*	*	*	*	*
*	*	*	*	*	*v	*v	*	*	*	*	*	*	*	*	*	*	*	*	*	*	*	*	*	*v	*v	*	*	*
=96	=96	=96	=96	=96	=96	=96	=96	=96	=96	=96	=96	=96	=96	=96	=96	=96	=96	=96	=96	=96	=96	=96	=96	=96	=96	=96
!LO:TX:a:t=Dämpfer nehman	!	!	!	!	!	!	!	!	!	!	!	!	!	!	!	!	!	!	!	!	!	!	!	!	!LO:TX:vg=7:a:B:i:t=molto - ([eighth]=52)	!
4E	2r;	]	2r	.	2r	.	4E 4B- 4dn	.	2r	ppp	2E;tt	ppp > ]	(4cc-X	2rB;	>	2r	.	4a-X	2re	[	4E)	.	2r	.	8r	.
.	.	.	.	.	.	.	.	.	.	.	.	.	.	.	.	.	.	.	.	.	.	.	.	.	8dd~L	pppp
4r;	.	.	.	.	.	.	4r;	.	.	.	.	.	4b-Z;)	.	]	.	.	4gn;)	.	> ]	4r;	]	.	.	(8dd	>
.	.	.	.	.	.	.	.	.	.	.	.	.	.	.	.	.	.	.	.	.	.	.	.	.	8cc#X;J)	]
*v	*v	*	*	*	*	*	*	*	*	*	*	*	*v	*v	*	*	*	*v	*v	*	*	*	*	*	*	*
=||	=||	=||	=||	=||	=||	=||	=||	=||	=||	=||	=||	=||	=||	=||	=||	=||	=||	=||	=||	=||	=||	=||	=||
*-	*-	*-	*-	*-	*-	*-	*-	*-	*-	*-	*-	*-	*-	*-	*-	*-	*-	*-	*-	*-	*-	*-	*-
!!!system-decoration: [(s1,s2,s3)][(s4,s5,s6)](s7)[({(s8,s9)})][(s10,s11,s12)]
!!!RDF**kern: i = editorial accidental
!!!RDF**kern: j = editorial accidental, bracket
!!!RDF**kern: Z = editorial accidental, parentheses
!!!EED: Daniel Wright
!!!EEV: 2021/07/26
